tools/download-figma-icons/icons/outlined-large/compass.svg

<svg width="64" height="64" viewBox="0 0 64 64" fill="none" xmlns="http://www.w3.org/2000/svg">
<path fill-rule="evenodd" clip-rule="evenodd" d="M32 3C16.01 3 3 16.01 3 32C3 47.99 16.01 61 32 61C47.99 61 61 47.99 61 32C61 16.01 47.99 3 32 3ZM32 64C14.355 64 0 49.645 0 32C0 14.355 14.355 0 32 0C49.645 0 64 14.355 64 32C64 49.645 49.645 64 32 64ZM27.6973 27.6972L20.2563 43.7442L36.3033 36.3022L43.7443 20.2562L27.6973 27.6972ZM17.1733 48.3272C16.7833 48.3272 16.3993 48.1762 16.1123 47.8872C15.6673 47.4422 15.5473 46.7672 15.8123 46.1962L25.2073 25.9362C25.3553 25.6142 25.6143 25.3552 25.9363 25.2072L46.1963 15.8122C46.7663 15.5482 47.4433 15.6662 47.8873 16.1122C48.3333 16.5572 48.4533 17.2322 48.1883 17.8032L38.7943 38.0632C38.6453 38.3852 38.3863 38.6442 38.0643 38.7932L17.8033 48.1872C17.6013 48.2812 17.3863 48.3272 17.1733 48.3272ZM30.5 57.2187C30.5 58.0467 31.172 58.7187 32 58.7187C32.828 58.7187 33.5 58.0467 33.5 57.2187V53.2187C33.5 52.3907 32.828 51.7187 32 51.7187C31.172 51.7187 30.5 52.3907 30.5 53.2187V57.2187ZM57.2178 33.5H53.2178C52.3898 33.5 51.7178 32.828 51.7178 32C51.7178 31.172 52.3898 30.5 53.2178 30.5H57.2178C58.0458 30.5 58.7178 31.172 58.7178 32C58.7178 32.828 58.0458 33.5 57.2178 33.5ZM30.499 10.7822C30.499 11.6102 31.171 12.2822 31.999 12.2822C32.827 12.2822 33.499 11.6102 33.499 10.7822V6.7822C33.499 5.9542 32.827 5.2822 31.999 5.2822C31.171 5.2822 30.499 5.9542 30.499 6.7822V10.7822ZM10.7812 33.5H6.7812C5.9532 33.5 5.2812 32.828 5.2812 32C5.2812 31.172 5.9532 30.5 6.7812 30.5H10.7812C11.6092 30.5 12.2812 31.172 12.2812 32C12.2812 32.828 11.6092 33.5 10.7812 33.5ZM32 35.083C33.702 35.083 35.082 33.702 35.082 32C35.082 30.298 33.702 28.918 32 28.918C30.297 28.918 28.917 30.298 28.917 32C28.917 33.702 30.297 35.083 32 35.083Z" fill="black"/>
</svg>

<svg xmlns="http://www.w3.org/2000/svg" width="64" height="64" fill="none" viewBox="0 0 64 64"><path fill="currentColor" fill-rule="evenodd" d="M32 3C16.01 3 3 16.01 3 32s13.01 29 29 29 29-13.01 29-29S47.99 3 32 3m0 61C14.355 64 0 49.645 0 32S14.355 0 32 0s32 14.355 32 32-14.355 32-32 32m-4.303-36.303-7.44 16.047 16.046-7.442 7.441-16.046zm-10.524 20.63a1.5 1.5 0 0 1-1.361-2.131l9.395-20.26c.148-.322.407-.58.73-.729l20.26-9.395a1.499 1.499 0 0 1 1.991 1.991l-9.394 20.26a1.5 1.5 0 0 1-.73.73l-20.26 9.394c-.203.094-.418.14-.63.14M30.5 57.22a1.5 1.5 0 0 0 3 0v-4a1.5 1.5 0 0 0-3 0zM57.218 33.5h-4a1.5 1.5 0 0 1 0-3h4a1.5 1.5 0 0 1 0 3M30.499 10.782a1.5 1.5 0 0 0 3 0v-4a1.5 1.5 0 0 0-3 0zM10.781 33.5h-4a1.5 1.5 0 0 1 0-3h4a1.5 1.5 0 0 1 0 3M32 35.083a3.083 3.083 0 1 0-.002-6.166A3.083 3.083 0 0 0 32 35.083" clip-rule="evenodd"/></svg>
